X: 40157
T: Tim Hobin's
R: jig
M: 6/8
K: Adorian
|:~A3 AGE|~A3 ~G3|A2a age|edc BAG|
~A3 ~a3|~A3 ~g3|d2f ~g3|edc BAG:|
|:~a3 b2a|bag a2g|~e3 ~a3|b2f ged|
e2a aga|bag age|~d3 gfe|edc BAG:|
|:c2A BAG|AB/c/d edB|c2A BAf|~g2e dcB|
c2A BAG|AB/c/d edA|def ~g3|edc BAG:|

